X: 13656
T: Follow Me Down To Milltown
R: barndance
M: 4/4
K: Dmajor
|:A2 FA A2 FA|B2 GB B2 GB|A2 FA A2 FA|EFGA BcdB|
A2 FA A2 FA|B2 GB B2 GB|AdcB AGFE|DDCE D4:|
|:Adfd Adfd|Acec Acec|Adfd Adfd|dABc d2 cB|
Adfd Adfd|Acec Acec|d2 cB AGFE|DDCE D4:|

